img/features/node-requests.svg

<svg xmlns="http://www.w3.org/2000/svg" viewBox="0 0 24 24" height="32" width="32">
    <path d="M7.8 13.29a.31.31 0 0 1 0 .42l-.86.91a1.54 1.54 0 0 0-.23 1.86 1.61 1.61 0 0 0 1.77.78L9.7 17a.32.32 0 0 1 .39.21l.37 1.19a1.62 1.62 0 0 0 3.08 0l.37-1.19a.32.32 0 0 1 .39-.21l1.22.28a1.6 1.6 0 0 0 1.77-.78 1.54 1.54 0 0 0-.23-1.86l-.86-.91a.31.31 0 0 1 0-.42l.86-.91a1.54 1.54 0 0 0 .23-1.86 1.6 1.6 0 0 0-1.77-.78L14.3 10a.32.32 0 0 1-.39-.21l-.37-1.19a1.62 1.62 0 0 0-3.08 0l-.37 1.19a.32.32 0 0 1-.39.21l-1.22-.26a1.6 1.6 0 0 0-1.77.78 1.54 1.54 0 0 0 .23 1.86Zm4.2-1.7a1.91 1.91 0 1 1-2 1.91 1.93 1.93 0 0 1 2-1.91Z"/>
    <path d="M22 1H2a2 2 0 0 0-2 2v18a2 2 0 0 0 2 2h20a2 2 0 0 0 2-2V3a2 2 0 0 0-2-2ZM5.5 3.58a1 1 0 1 1 1 1 1 1 0 0 1-1-1Zm3.5 0a1 1 0 1 1 1 1 1 1 0 0 1-1-1Zm-6-1a1 1 0 1 1-1 1 1 1 0 0 1 1-1ZM21.5 21h-19a.5.5 0 0 1-.5-.5V7a.5.5 0 0 1 .5-.5h19a.5.5 0 0 1 .5.5v13.5a.5.5 0 0 1-.5.5Z"/>
</svg>

<svg xmlns="http://www.w3.org/2000/svg" viewBox="0 0 24 24" height="32" width="32">
    <g>
        <path
            d="M7.8,13.29a.31.31,0,0,1,0,.42l-.86.91a1.54,1.54,0,0,0-.23,1.86,1.61,1.61,0,0,0,1.77.78L9.7,17a.32.32,0,0,1,.39.21l.37,1.19a1.62,1.62,0,0,0,3.08,0l.37-1.19A.32.32,0,0,1,14.3,17l1.22.28a1.6,1.6,0,0,0,1.77-.78,1.54,1.54,0,0,0-.23-1.86l-.86-.91a.31.31,0,0,1,0-.42l.86-.91a1.54,1.54,0,0,0,.23-1.86,1.6,1.6,0,0,0-1.77-.78L14.3,10a.32.32,0,0,1-.39-.21l-.37-1.19h0a1.62,1.62,0,0,0-3.08,0l-.37,1.19A.32.32,0,0,1,9.7,10L8.48,9.74a1.6,1.6,0,0,0-1.77.78,1.54,1.54,0,0,0,.23,1.86Zm4.2-1.7a1.91,1.91,0,1,1-2,1.91A1.93,1.93,0,0,1,12,11.59Z"
            fill="#000000"/>
        <path
            d="M22,1H2A2,2,0,0,0,0,3V21a2,2,0,0,0,2,2H22a2,2,0,0,0,2-2V3A2,2,0,0,0,22,1ZM5.5,3.58a1,1,0,1,1,1,1A1,1,0,0,1,5.5,3.58Zm3.5,0a1,1,0,1,1,1,1A1,1,0,0,1,9,3.58Zm-6-1a1,1,0,1,1-1,1A1,1,0,0,1,3,2.58ZM21.5,21H2.5a.5.5,0,0,1-.5-.5V7a.5.5,0,0,1,.5-.5h19A.5.5,0,0,1,22,7V20.5A.5.5,0,0,1,21.5,21Z"
            fill="#000000"/>
    </g>
</svg>
